X:13587
T:Priest In his Boots,The. GS.120
M:6/8
L:1/8
Q:120
S:George Spencer m/s, Leeds,1831
R:Jig
O:England
A:Leeds
N:Date information -   'George Spencer Book Leeds September 8 when he
N:finished this Book Kings Coronation Day' - but there are four tunes
N:after this ..Cherri..King George III died unlamented in 1830, and was
N:succeeded by his brother William IV ,King 1831 - 1837 "His
N:Majesty,though at times a jovial and, for a king, an honest man,was a
N:weak,ignorant commonplace sort of person..his very popularity was
N:aquired at the price of something like public contempt.-The Spectator..
N:Chris P.
H:1831
Z:vmp.Cherri Graebe
K:D major
eee eee | efd cBA | d2d fed | c2d e3 | eee eee | efd cBA |
d2e faf | gec d3 :||: a2fg2e | f2d ecA | d2e fed | c2d e3 | 
afa geg | fdf ecA | d2d faf | gec d3 :||
